svgs/sharp-regular/suitcase.svg

<svg xmlns="http://www.w3.org/2000/svg" viewBox="0 0 512 512"><!--! Font Awesome Pro 6.6.0 by @fontawesome - https://fontawesome.com License - https://fontawesome.com/license (Commercial License) Copyright 2024 Fonticons, Inc. --><path d="M152 0L128 0l0 24 0 72L48 96 0 96l0 48L0 432l0 48 48 0 416 0 48 0 0-48 0-288 0-48-48 0-80 0 0-72 0-24L360 0 152 0zM336 96L176 96l0-48 160 0 0 48zM152 144l208 0 8 0 0 288-224 0 0-288 8 0zM48 144l48 0 0 288-48 0 0-288zM464 432l-48 0 0-288 48 0 0 288z"/></svg>

<svg xmlns="http://www.w3.org/2000/svg" viewBox="0 0 512 512"><!--! Font Awesome Pro 6.4.0 by @fontawesome - https://fontawesome.com License - https://fontawesome.com/license (Commercial License) Copyright 2023 Fonticons, Inc. --><path d="M152 0H128V24 96H48 0v48V432v48H48 464h48V432 144 96H464 384V24 0H360 152zM336 96H176V48H336V96zM152 144H360h8V432H144V144h8zM48 144H96V432H48V144zM464 432H416V144h48V432z"/></svg>
